src/assets/svg/paws.svg

<svg width="197" height="184" viewBox="0 0 197 184" fill="none" xmlns="http://www.w3.org/2000/svg">
<g clip-path="url(#clip0)">
<path d="M95.58 31.4176C91.7313 27.6602 84.4906 28.8381 79.407 34.0546C74.3215 39.2638 73.3181 46.5339 77.1715 50.294C81.0202 54.0514 88.2609 52.8735 93.3445 47.657C99.9578 40.8696 96.5046 32.3152 95.58 31.4176Z" fill="white"/>
<path d="M59.5971 38.7412C64.1154 41.3499 70.7009 38.4023 74.3063 32.1576C77.9116 25.9129 77.1716 18.7359 72.6533 16.1273C68.135 13.5186 61.5494 16.4662 57.9441 22.7109C54.3387 28.9556 55.0788 36.1326 59.5971 38.7412Z" fill="white"/>
<path d="M94.2691 58.1242C89.4797 55.4515 83.1021 57.7936 79.1688 64.852C75.2309 71.9076 77.3221 77.3634 82.1116 80.0361C86.8964 82.7062 92.5718 81.5803 96.5097 74.5246C101.635 65.3368 95.4175 58.7625 94.2691 58.1242Z" fill="white"/>
<path d="M33.986 46.6029C38.8215 48.9611 45.3291 45.5667 48.5212 39.0213C51.7132 32.4759 50.381 25.2582 45.5455 22.9C40.71 20.5418 34.2024 23.9362 31.0103 30.4816C27.8182 37.0269 29.1505 44.2447 33.986 46.6029Z" fill="white"/>
<path d="M74.7566 81.8818C72.7555 75.9601 70.985 71.0595 69.9209 60.4499C69.3865 55.2024 66.5862 52.9505 63.3675 51.0922C60.1442 49.2313 56.0957 48.4045 51.3248 50.6445C46.5538 52.8845 41.4795 54.8384 32.9624 56.3152C24.45 57.7948 20.1012 59.6988 17.2843 64.5777C14.4675 69.4566 12.571 79.1708 20.4928 83.7444C28.4147 88.3181 33.2504 88.7854 39.5166 92.4032C45.7829 96.021 48.5518 100.869 56.4736 105.443C64.3954 110.017 72.03 104.429 74.8468 99.5503C77.6636 94.6714 77.8868 91.1129 74.7566 81.8818Z" fill="white"/>
</g>
<g clip-path="url(#clip1)">
<path d="M72.58 129.59C68.7313 125.833 61.4906 127.011 56.407 132.227C51.3215 137.436 50.3181 144.706 54.1715 148.466C58.0202 152.224 65.2609 151.046 70.3445 145.829C76.9578 139.042 73.5046 130.488 72.58 129.59Z" fill="white"/>
<path d="M36.5971 136.914C41.1154 139.522 47.7009 136.575 51.3063 130.33C54.9116 124.085 54.1716 116.908 49.6533 114.3C45.135 111.691 38.5494 114.639 34.9441 120.883C31.3387 127.128 32.0788 134.305 36.5971 136.914Z" fill="white"/>
<path d="M71.2691 156.297C66.4797 153.624 60.1021 155.966 56.1688 163.024C52.2309 170.08 54.3221 175.536 59.1116 178.209C63.8964 180.879 69.5718 179.753 73.5097 172.697C78.6354 163.509 72.4175 156.935 71.2691 156.297Z" fill="white"/>
<path d="M10.986 144.775C15.8215 147.134 22.3291 143.739 25.5212 137.194C28.7132 130.648 27.381 123.431 22.5455 121.072C17.71 118.714 11.2024 122.109 8.0103 128.654C4.81823 135.199 6.15049 142.417 10.986 144.775Z" fill="white"/>
<path d="M51.7566 180.054C49.7555 174.133 47.985 169.232 46.9208 158.622C46.3865 153.375 43.5862 151.123 40.3675 149.265C37.1442 147.404 33.0957 146.577 28.3247 148.817C23.5538 151.057 18.4795 153.011 9.96244 154.488C1.45 155.967 -2.89884 157.871 -5.71566 162.75C-8.53249 167.629 -10.429 177.343 -2.50716 181.917C5.41467 186.491 10.2504 186.958 16.5166 190.576C22.7829 194.194 25.5517 199.042 33.4736 203.615C41.3954 208.189 49.03 202.602 51.8468 197.723C54.6636 192.844 54.8868 189.285 51.7566 180.054Z" fill="white"/>
</g>
<g clip-path="url(#clip2)">
<path d="M174.208 107.575L174.209 107.576C174.259 107.632 174.37 107.812 174.51 108.147C174.643 108.467 174.787 108.891 174.916 109.4C175.176 110.418 175.375 111.757 175.333 113.257C175.248 116.249 174.207 119.87 170.773 122.889C168.11 125.23 165.014 126.537 162.176 126.777C159.338 127.016 156.795 126.191 155.151 124.317L155.151 124.317C153.504 122.441 153.015 119.811 153.62 117.027C154.225 114.243 155.922 111.341 158.586 109.004L158.586 109.003C161.249 106.662 164.346 105.355 167.183 105.115C170.021 104.875 172.564 105.701 174.208 107.575Z" fill="white" stroke="white"/>
<path d="M152.904 106.06C150.918 108.957 148.283 110.98 145.646 111.924C143.009 112.867 140.412 112.722 138.426 111.361C136.439 109.999 135.366 107.63 135.294 104.83C135.223 102.031 136.158 98.8423 138.143 95.9455C140.128 93.0487 142.764 91.0256 145.401 90.0822C148.037 89.1385 150.635 89.2841 152.621 90.6454C154.608 92.0067 155.681 94.3764 155.753 97.1762C155.824 99.9753 154.889 103.164 152.904 106.06Z" fill="white" stroke="white"/>
<path d="M170.941 134.188L170.942 134.189C171.132 134.314 171.649 134.824 172.233 135.703C172.806 136.565 173.414 137.739 173.814 139.155C174.61 141.97 174.593 145.768 171.77 150.019C169.585 153.311 167.126 155.068 164.712 155.664C162.304 156.259 159.868 155.715 157.683 154.264C155.496 152.812 154.032 150.766 153.629 148.304C153.226 145.838 153.875 142.881 156.06 139.592L156.06 139.591C160.441 132.985 166.692 131.367 170.941 134.188Z" fill="white" stroke="white"/>
<path d="M126.647 110.945C124.852 114.002 122.321 116.215 119.701 117.334C117.081 118.453 114.406 118.468 112.255 117.205C110.105 115.943 108.815 113.6 108.515 110.766C108.215 107.933 108.914 104.644 110.709 101.587C112.504 98.5298 115.036 96.317 117.656 95.198C120.276 94.079 122.951 94.0639 125.102 95.3266C127.252 96.5894 128.542 98.9324 128.842 101.766C129.141 104.599 128.442 107.888 126.647 110.945Z" fill="white" stroke="white"/>
<path d="M149.447 156.077L149.447 156.077C150.649 160.789 151.109 163.966 150.895 166.523C150.683 169.054 149.807 171.017 148.247 173.294C146.709 175.538 143.985 177.874 140.742 179.016C137.518 180.151 133.792 180.105 130.169 177.623C126.442 175.069 123.988 172.546 121.708 170.132C121.572 169.989 121.437 169.845 121.302 169.702C119.173 167.445 117.123 165.271 114.268 163.315C111.424 161.366 108.844 160.146 106.151 158.872C105.982 158.792 105.812 158.711 105.641 158.631C102.762 157.266 99.7079 155.777 95.9683 153.215C92.3635 150.744 91.1904 147.246 91.3009 143.768C91.4122 140.268 92.8286 136.812 94.3769 134.553C97.4284 130.1 101.709 128.555 110.28 127.739C118.936 126.918 124.19 125.35 129.155 123.471C133.906 121.672 137.709 122.763 140.668 124.79C142.184 125.83 143.544 126.928 144.546 128.389C145.54 129.839 146.201 131.677 146.263 134.225C146.497 144.495 147.791 149.575 149.255 155.324C149.319 155.574 149.383 155.824 149.447 156.077Z" fill="white" stroke="white"/>
</g>
<defs>
<clipPath id="clip0">
<rect x="44.7197" width="85.4393" height="85.4393" transform="rotate(30 44.7197 0)" fill="white"/>
</clipPath>
<clipPath id="clip1">
<rect x="21.7197" y="98.1725" width="85.4393" height="85.4393" transform="rotate(30 21.7197 98.1725)" fill="white"/>
</clipPath>
<clipPath id="clip2">
<rect x="126.297" y="72" width="85.4393" height="85.4393" transform="rotate(34.422 126.297 72)" fill="white"/>
</clipPath>
</defs>
</svg>

<svg xmlns="http://www.w3.org/2000/svg" width="197" height="184" fill="none"><g clip-path="url(#A)" fill="#fff"><path d="M95.58 31.418c-3.85-3.757-11.1-2.58-16.173 2.637-5.085 5.2-6.1 12.48-2.236 16.24s11.1 2.58 16.173-2.637c6.613-6.787 3.16-15.342 2.236-16.24zM59.597 38.74c4.518 2.6 11.104-.34 14.7-6.584s2.865-13.422-1.653-16.03-11.104.34-14.7 6.584-2.865 13.422 1.653 16.03zM94.27 58.124c-4.8-2.673-11.167-.33-15.1 6.728s-1.847 12.5 2.943 15.184 10.46 1.544 14.398-5.5c5.125-9.188-1.092-15.762-2.24-16.4zm-60.284-11.52c4.836 2.358 11.343-1.036 14.535-7.582s1.86-13.763-2.976-16.12S34.202 23.936 31 30.482s-1.86 13.763 2.976 16.12zm40.77 35.28c-2-5.922-3.772-10.822-4.836-21.432-.534-5.248-3.335-7.5-6.553-9.358s-7.272-2.688-12.043-.448-9.845 4.194-18.362 5.67S20.1 59.7 17.284 64.578s-4.714 14.592 3.21 19.166 12.758 5.04 19.024 8.66 9.035 8.466 16.957 13.04 15.556-1.014 18.373-5.893 3.04-8.437-.1-17.668z"/></g><g clip-path="url(#B)" fill="#fff"><path d="M72.58 129.6c-3.85-3.757-11.1-2.58-16.173 2.637-5.085 5.2-6.1 12.48-2.235 16.24s11.1 2.58 16.173-2.637c6.613-6.787 3.16-15.34 2.236-16.24zm-35.983 7.314c4.518 2.608 11.104-.34 14.7-6.584s2.865-13.422-1.653-16.03-11.104.34-14.7 6.583-2.865 13.422 1.653 16.03zm34.673 19.383c-4.8-2.673-11.167-.33-15.1 6.727s-1.847 12.512 2.943 15.185 10.46 1.544 14.398-5.512c5.126-9.188-1.092-15.762-2.24-16.4zm-60.284-11.522c4.836 2.36 11.343-1.036 14.535-7.58s1.86-13.763-2.976-16.122S11.202 122.1 8 128.654s-1.86 13.763 2.976 16.12zm40.77 35.28c-2-5.92-3.772-10.822-4.836-21.432-.534-5.247-3.335-7.5-6.553-9.357s-7.272-2.688-12.043-.448-9.845 4.194-18.362 5.67-12.86 3.383-15.678 8.262-4.713 14.593 3.2 19.167 12.758 5.04 19.024 8.66 9.035 8.466 16.957 13.04 15.556-1.013 18.373-5.892 3.04-8.438-.1-17.67z"/></g><g clip-path="url(#C)" fill="#fff" stroke="#fff"><path d="M174.208 107.575l.001.001c.05.056.16.236.3.57.133.32.277.744.406 1.253a14.21 14.21 0 0 1 .417 3.857c-.085 2.992-1.126 6.613-4.56 9.632-2.663 2.34-5.76 3.648-8.597 3.888s-5.38-.586-7.025-2.46h0c-1.647-1.876-2.136-4.506-1.53-7.3s2.302-5.686 4.966-8.023v-.001c2.663-2.34 5.76-3.648 8.597-3.888s5.38.586 7.025 2.46zm-21.304-1.515c-1.986 2.897-4.62 4.92-7.258 5.864s-5.234.798-7.22-.563-3.06-3.73-3.132-6.53.864-5.988 2.85-8.885 4.62-4.92 7.258-5.863 5.234-.798 7.22.563 3.06 3.73 3.132 6.53-.864 5.988-2.85 8.884zm18.036 28.128v.001c.2.125.707.635 1.3 1.514a12.37 12.37 0 0 1 1.581 3.452c.796 2.815.78 6.613-2.044 10.864-2.185 3.292-4.644 5.05-7.058 5.645-2.408.595-4.844.05-7.03-1.4s-3.65-3.498-4.054-5.96.246-5.423 2.43-8.712v-.001c4.38-6.606 10.632-8.224 14.88-5.403zm-44.293-23.243c-1.795 3.057-4.326 5.27-6.946 6.4s-5.295 1.134-7.446-.13-3.44-3.605-3.74-6.44.4-6.122 2.194-9.18 4.327-5.27 6.947-6.4 5.295-1.134 7.446.13 3.44 3.606 3.74 6.44-.4 6.122-2.195 9.18zm22.8 45.132h0c1.202 4.712 1.662 7.9 1.448 10.446-.212 2.53-1.088 4.494-2.648 6.77-1.538 2.244-4.262 4.58-7.505 5.722-3.224 1.135-6.95 1.1-10.573-1.393-3.727-2.554-6.18-5.077-8.46-7.5l-.406-.43c-2.13-2.257-4.18-4.43-7.034-6.387-2.844-1.95-5.424-3.17-8.117-4.443l-.5-.24c-2.88-1.365-5.933-2.854-9.673-5.416-3.605-2.47-4.778-5.97-4.667-9.447.1-3.5 1.528-6.956 3.076-9.215 3.05-4.453 7.332-5.998 15.903-6.814 8.656-.82 13.9-2.4 18.875-4.268 4.75-1.8 8.554-.708 11.513 1.32 1.516 1.04 2.876 2.138 3.878 3.6.994 1.45 1.655 3.288 1.717 5.836.234 10.27 1.528 15.35 2.992 21.1l.192.753z"/></g><defs><clipPath id="A"><path transform="rotate(30 44.72 0)" fill="#fff" d="M44.72 0h85.44v85.44H44.72z"/></clipPath><clipPath id="B"><path transform="rotate(30 21.72 98.173)" fill="#fff" d="M21.72 98.173h85.44v85.44H21.72z"/></clipPath><clipPath id="C"><path transform="rotate(34.422 126.297 72)" fill="#fff" d="M126.297 72h85.44v85.44h-85.44z"/></clipPath></defs></svg>
